public/payments/common/paysafe-card.svg

<svg width="87" height="27" viewBox="0 0 87 27" fill="none" xmlns="http://www.w3.org/2000/svg">
<path d="M2.35496 9.20986C2.4943 9.1238 2.63998 9.05965 2.78777 9.0174C2.91784 8.10848 3.25752 7.29514 3.74839 6.71728C4.24346 6.13357 4.85758 5.81635 5.49018 5.81757C6.12566 5.81757 6.7411 6.13521 7.23302 6.71884C7.72494 7.30091 8.0638 8.113 8.19258 9.0174C8.5705 9.0972 8.92097 9.35225 9.19332 9.74342C9.19867 9.40364 9.18738 9.06372 9.15954 8.72636C9.08356 7.35284 8.65147 6.0764 7.95401 5.16509C7.24883 4.24329 6.33514 3.74939 5.39517 3.78189C4.45522 3.80988 3.5571 4.36317 2.88066 5.33095C2.21229 6.28803 1.82059 7.59224 1.78809 8.96889V9.74342C1.96438 9.53845 2.15439 9.35851 2.35496 9.20986Z" fill="white"/>
<path d="M7.65755 9.5979H3.2218C2.9885 9.59164 2.75732 9.67614 2.55464 9.84044C2.34774 9.9484 2.16406 10.1315 2.02049 10.3724C1.71014 10.9717 1.55602 11.7103 1.58769 12.4582V17.4981C1.56341 18.2601 1.71542 19.0112 2.02049 19.6308C2.17884 19.8467 2.35829 20.0267 2.55464 20.1628C2.7626 20.3114 2.98956 20.3944 3.2218 20.4069H7.65755C8.79235 20.4069 9.393 19.4853 9.393 17.6436V12.3612C9.393 10.5195 8.82507 9.64641 7.65755 9.5979ZM61.1937 12.0232V17.9362C61.1889 18.2559 61.2312 18.5732 61.3176 18.8662C61.404 19.1591 61.5325 19.4206 61.6941 19.6324C61.875 19.8711 62.0862 20.054 62.3152 20.1706C62.5443 20.2872 62.7867 20.3351 63.0284 20.3114H65.6633V19.2443H63.0611C62.9172 19.2514 62.7741 19.2117 62.6416 19.1279C62.5092 19.044 62.3908 18.9182 62.2948 18.7593C62.0998 18.4413 61.9924 18.0264 61.9939 17.5967V12.2657C61.9865 12.0657 62.0098 11.8659 62.0619 11.6811C62.114 11.4963 62.1936 11.3314 62.2948 11.1986C62.3901 11.0547 62.5045 10.9417 62.6308 10.8669C62.7571 10.792 62.8925 10.7568 63.0284 10.7636H65.6295V9.64798H63.0284C62.5903 9.65423 62.1628 9.83887 61.7933 10.18C61.5883 10.377 61.4237 10.6535 61.3172 10.9795C61.2117 11.305 61.1695 11.6649 61.1937 12.0232ZM73.3345 11.7822C73.3311 11.4642 73.2851 11.1504 73.1992 10.859C73.1133 10.5676 72.9892 10.3043 72.8342 10.0845C72.7177 9.86282 72.5527 9.7084 72.3676 9.64798C72.1589 9.58896 71.9458 9.57316 71.7342 9.60104H67.5645V10.7151H71.5663C72.4003 10.7151 72.5344 11.3926 72.5344 11.8292V13.1858H69.2324C68.0976 13.1858 67.5645 14.1559 67.5645 16.2401V17.7907C67.5645 18.4604 67.7439 19.1051 68.0648 19.5839C68.2101 19.8304 68.3897 20.0274 68.5913 20.1614C68.7928 20.2954 69.0115 20.3631 69.2324 20.36H71.7342C71.941 20.3532 72.1448 20.2854 72.3336 20.1604C72.5225 20.0355 72.6927 19.856 72.8342 19.6324C72.9908 19.4147 73.1159 19.1521 73.2019 18.8605C73.288 18.5689 73.3331 18.2545 73.3345 17.9362V11.7822ZM72.5344 17.8392C72.5275 18.0631 72.4813 18.2805 72.4003 18.4698C72.354 18.6286 72.2856 18.771 72.1996 18.8878C72.1135 19.0046 72.0118 19.093 71.901 19.1473C71.7078 19.2412 71.503 19.2725 71.3003 19.2443H69.6324C69.334 19.2764 69.0351 19.1933 68.7647 19.0034C68.6384 18.862 68.5358 18.6794 68.4649 18.4698C68.4079 18.2864 68.3739 18.0892 68.3646 17.8877V15.8536C68.3646 15.27 68.5314 14.3499 69.5997 14.3499H72.5671L72.5344 17.8392ZM77.3364 10.762H77.7038V9.5979H77.2372C77.0081 9.57029 76.7776 9.61194 76.5596 9.72034C76.3417 9.82873 76.1409 10.0016 75.9694 10.2285C75.7361 10.568 75.6358 11.1986 75.6358 12.1186V20.3099H76.4032V12.1672C76.3883 11.9809 76.4019 11.7921 76.4433 11.6149C76.4846 11.4376 76.5525 11.2766 76.6418 11.1438C76.7317 11.0089 76.8406 10.9047 76.9606 10.8388C77.0806 10.7728 77.2089 10.7466 77.3364 10.762ZM84.976 5.62355H84.2086V9.5979H81.1061C79.9058 9.5979 79.3389 10.3724 79.3389 12.0201V17.8376C79.3217 18.1535 79.3483 18.4713 79.4171 18.7714C79.486 19.0714 79.5955 19.3474 79.739 19.5823C79.8934 19.8248 80.0794 20.0185 80.2857 20.1516C80.492 20.2848 80.7143 20.3546 80.9393 20.3568H83.3746C83.5921 20.3631 83.8074 20.2958 84.0038 20.1612C84.2001 20.0267 84.3732 19.8295 84.5084 19.5823C84.8324 19.0503 85.0013 18.354 84.976 17.6421V5.62355ZM84.2086 17.5936C84.2162 17.808 84.1934 18.0224 84.1415 18.223C84.0897 18.4235 84.0101 18.6057 83.9077 18.7577C83.81 18.9137 83.6913 19.0374 83.5593 19.121C83.4273 19.2046 83.2849 19.2461 83.1413 19.2428H80.9731C80.852 19.247 80.7318 19.2098 80.622 19.1341C80.5121 19.0584 80.4155 18.9462 80.3397 18.8062C80.1797 18.5215 80.0963 18.1594 80.1053 17.7891V12.3127C80.1053 11.294 80.4727 10.7605 81.1398 10.7605H84.2086V17.5936ZM16.6642 12.9918C16.6642 12.5552 16.5301 12.3612 16.263 12.3612H14.8633C14.7584 12.3603 14.6557 12.405 14.5679 12.4898C14.4801 12.5747 14.411 12.6959 14.3692 12.8384C14.3427 12.9326 14.3294 13.0337 14.3302 13.1357V16.8206C14.3302 17.3526 14.5307 17.5951 14.897 17.5951H16.1976C16.2613 17.5907 16.3238 17.5671 16.3811 17.5256C16.4385 17.4842 16.4896 17.4259 16.5312 17.3542C16.5773 17.3047 16.6139 17.2383 16.6374 17.1615C16.6609 17.0846 16.6705 17 16.6652 16.916V12.9918H16.6642ZM12.4279 12.4582C12.4231 11.6829 12.6 10.9291 12.9283 10.3255C13.0866 10.1096 13.2661 9.92962 13.4614 9.79349C13.6699 9.64437 13.8971 9.56124 14.1286 9.5494H16.7307C17.8644 9.5494 18.4651 10.471 18.4651 12.3127V17.8862C18.4694 18.2036 18.4232 18.5181 18.3305 18.8043C18.2377 19.0905 18.1008 19.3404 17.9309 19.5338C17.609 20.0029 17.1816 20.2793 16.7307 20.3099H14.2616V24.3327H12.4269L12.4279 12.4582ZM21.7671 17.1116C21.7642 17.1881 21.7751 17.2644 21.7987 17.3326C21.8222 17.4008 21.8576 17.4584 21.9011 17.4997C21.9995 17.5983 22.116 17.6492 22.2347 17.6452H23.6355C23.9353 17.6452 24.1021 17.4512 24.1359 17.1132V16.3371C24.1359 15.899 23.9691 15.7065 23.6355 15.7065H22.2337C22.1037 15.6884 21.9738 15.7401 21.8674 15.852C21.786 16.0207 21.7503 16.2283 21.7671 16.4341V17.1116ZM24.1359 12.9432C24.1359 12.5568 23.9691 12.3627 23.6355 12.3627H19.9662V9.64798H24.1021C25.3024 9.69648 25.903 10.5211 25.9368 12.1672V17.8392C25.9453 18.5011 25.7785 19.1442 25.4702 19.6324C25.3168 19.8741 25.1302 20.0641 24.9229 20.1896C24.7157 20.3152 24.4926 20.3732 24.2689 20.36H21.7671C20.5668 20.36 19.9324 19.5354 19.9324 17.9347V15.7566C19.9324 14.0604 20.5341 13.2374 21.7006 13.1873H24.1359V12.9432ZM31.0397 21.668C31.1786 21.6599 31.3101 21.5731 31.4071 21.4255C31.4487 21.3706 31.482 21.3034 31.5049 21.2282C31.5278 21.153 31.5398 21.0715 31.5401 20.989V20.3584H29.205C28.9568 20.368 28.7092 20.3189 28.4714 20.2129C28.2543 20.088 28.0601 19.8891 27.9045 19.6324C27.7408 19.3565 27.606 19.0459 27.5044 18.7108C27.4191 18.3695 27.3741 18.0091 27.3714 17.6452V9.59947H29.205V16.7721C29.205 17.3542 29.3718 17.6452 29.7065 17.6452H31.007C31.0812 17.6458 31.1547 17.6246 31.2233 17.583C31.292 17.5414 31.3544 17.4801 31.4071 17.4027C31.499 17.295 31.5589 17.1383 31.5739 16.9661V9.59947H33.3748V21.4255C33.3948 22.1922 33.2291 22.948 32.9082 23.5582C32.7604 23.8258 32.5725 24.0401 32.3593 24.1841C32.1438 24.3272 31.909 24.3946 31.6731 24.3812H27.4041V21.668H31.0397ZM34.7756 17.6452H38.0111C38.3109 17.6452 38.4777 17.4512 38.4777 17.1116V16.8691C38.4801 16.7855 38.4689 16.7023 38.4449 16.6266C38.4229 16.5465 38.3864 16.4771 38.3395 16.4257C38.2926 16.3744 38.237 16.3432 38.1789 16.3355H36.5775C36.1173 16.3447 35.6733 16.0838 35.3425 15.6095C35.1836 15.4219 35.0537 15.1861 34.9614 14.9179C34.8691 14.6508 34.8173 14.3571 34.8094 14.0573V12.0232C34.8421 10.4225 35.41 9.64797 36.5775 9.5979H40.3461V12.3127H37.1444C36.7771 12.3127 36.5775 12.4582 36.5775 12.7977V13.0403C36.5775 13.3798 36.7781 13.5723 37.1444 13.5723H38.7447C38.9538 13.5691 39.1607 13.6333 39.3517 13.76C39.5417 13.8852 39.7106 14.0698 39.8458 14.2998C40.1413 14.7427 40.3092 15.3326 40.3124 15.9475V17.9347C40.2786 18.5605 40.0886 19.1457 39.7793 19.5839C39.6377 19.8209 39.4681 20.0176 39.2789 20.1644C39.0424 20.2786 38.7933 20.3287 38.5452 20.3099H34.7766L34.7756 17.6452ZM43.4814 17.1116C43.4784 17.1881 43.4892 17.2645 43.5128 17.3327C43.5363 17.4009 43.5718 17.4585 43.6154 17.4997C43.7137 17.5983 43.8303 17.6492 43.949 17.6452H45.3498C45.6496 17.6452 45.8164 17.4512 45.8502 17.1132V16.3371C45.8502 15.899 45.6834 15.7065 45.3498 15.7065H43.949C43.8187 15.6879 43.6883 15.7396 43.5816 15.852C43.5002 16.0206 43.4644 16.2283 43.4814 16.4341V17.1116ZM45.8502 12.9432C45.8502 12.5568 45.6834 12.3627 45.3498 12.3627H41.6805V9.64798H45.8164C47.0177 9.69648 47.6173 10.5211 47.6511 12.1672V17.8392C47.6595 18.5011 47.4927 19.1442 47.1845 19.6324C47.032 19.8759 46.8456 20.0672 46.6381 20.1929C46.4306 20.3185 46.2071 20.3756 45.9832 20.36H43.4814C42.2811 20.36 41.6467 19.5354 41.6467 17.9347V15.7566C41.6467 14.0604 42.2484 13.2374 43.4148 13.1873H45.8502V12.9432ZM49.1184 8.09735C49.1132 7.76085 49.1619 7.42733 49.2604 7.12408C49.359 6.82084 49.5046 6.5565 49.6853 6.35271C50.0848 5.89191 50.5801 5.65178 51.0861 5.67362H52.2536V8.28981H51.5537C51.4781 8.27471 51.4011 8.28365 51.3279 8.31602C51.2548 8.34839 51.1871 8.40346 51.1294 8.47757C51.0729 8.5507 51.0278 8.64123 50.9974 8.74285C50.9669 8.84448 50.9518 8.95473 50.9531 9.0659V9.64798H52.2536V12.3612H50.9531V20.4053H49.1184V8.09735ZM57.3914 12.8947V12.8478C57.3939 12.7778 57.3825 12.7082 57.3587 12.6476C57.3349 12.587 57.2996 12.538 57.2573 12.5067C57.1693 12.4153 57.0649 12.3647 56.9575 12.3612H55.6908C55.6185 12.3518 55.5458 12.3642 55.4768 12.3975C55.4079 12.4309 55.3442 12.4845 55.2896 12.5552C55.2316 12.605 55.1829 12.6754 55.1479 12.7601C55.1129 12.8448 55.0927 12.9411 55.089 13.0403V14.1543L57.3914 12.8947ZM55.1566 16.7236V16.8691C55.1501 16.9669 55.1587 17.0657 55.1817 17.1578C55.2048 17.25 55.2417 17.3332 55.2896 17.4011C55.3561 17.5482 55.4226 17.6452 55.5229 17.6452H59.2598V20.3584H55.2896C55.0082 20.3736 54.727 20.3246 54.4557 20.2129C54.2319 20.102 54.0269 19.9205 53.855 19.6809C53.6772 19.4402 53.5398 19.1412 53.4539 18.8078C53.3779 18.3978 53.3444 17.9731 53.3546 17.5482V12.1186C53.3884 10.471 53.9553 9.64641 55.1228 9.59947H57.5909C58.7257 9.64641 59.2926 10.471 59.3253 12.2157V14.3483L55.1566 16.7236Z" fill="white"/>
</svg>

<svg xmlns="http://www.w3.org/2000/svg" width="87" height="27" fill="none"><path fill="#fff" d="M2.35 9.21c.14-.09.29-.15.44-.2.13-.9.47-1.71.96-2.3.5-.58 1.1-.9 1.74-.9.64 0 1.25.33 1.74.9.5.6.83 1.4.96 2.3.38.09.73.34 1 .73 0-.34 0-.68-.03-1.01a6.52 6.52 0 0 0-1.2-3.56c-.71-.93-1.62-1.42-2.56-1.39-.94.03-1.84.58-2.52 1.55a6.72 6.72 0 0 0-1.1 3.64v.77c.18-.2.37-.38.57-.53Z"/><path fill="#fff" d="M7.66 9.6H3.22c-.23 0-.46.08-.67.24-.2.1-.39.3-.53.53a4.2 4.2 0 0 0-.43 2.09v5.04c-.03.76.13 1.51.43 2.13.16.22.34.4.53.53.21.15.44.23.67.25h4.44c1.13 0 1.73-.92 1.73-2.77v-5.28c0-1.84-.56-2.71-1.73-2.76Zm53.53 2.42v5.92c0 .32.04.63.13.93.08.29.21.55.37.76.19.24.4.42.63.54.22.12.47.17.7.14h2.64v-1.07h-2.6a.71.71 0 0 1-.42-.11 1.1 1.1 0 0 1-.35-.37c-.19-.32-.3-.73-.3-1.16v-5.33c0-.2.02-.4.07-.59.05-.18.13-.35.23-.48.1-.15.21-.26.34-.33a.7.7 0 0 1 .4-.1h2.6V9.64h-2.6a1.86 1.86 0 0 0-1.71 1.33c-.1.32-.15.68-.13 1.04Zm12.14-.24c0-.32-.04-.63-.13-.92-.09-.3-.21-.56-.37-.78a.85.85 0 0 0-.46-.43c-.21-.06-.42-.08-.64-.05h-4.17v1.12h4c.84 0 .97.67.97 1.1v1.37h-3.3c-1.13 0-1.67.97-1.67 3.05v1.55c0 .67.18 1.32.5 1.8.15.24.33.44.53.57.2.14.42.2.64.2h2.5c.21 0 .41-.07.6-.2.2-.12.36-.3.5-.53.16-.22.29-.48.37-.77.09-.3.13-.6.13-.92v-6.16Zm-.8 6.06c0 .22-.05.44-.13.63-.05.16-.11.3-.2.42a.83.83 0 0 1-.3.26c-.2.1-.4.12-.6.1h-1.67c-.3.03-.6-.06-.87-.25a1.54 1.54 0 0 1-.3-.53c-.05-.18-.09-.38-.1-.58v-2.04c0-.58.17-1.5 1.24-1.5h2.97l-.04 3.49Zm4.8-7.08h.37V9.6h-.46c-.23-.03-.46.01-.68.12-.22.1-.42.28-.6.5-.22.35-.32.98-.32 1.9v8.19h.76v-8.14c-.01-.19 0-.38.04-.56.04-.17.11-.33.2-.47.1-.13.2-.24.32-.3.12-.07.25-.1.38-.08Zm7.65-5.14h-.77V9.6h-3.1c-1.2 0-1.77.77-1.77 2.42v5.82c-.02.31 0 .63.08.93.07.3.18.58.32.81.15.24.34.44.55.57.2.13.42.2.65.2h2.43c.22.01.44-.05.63-.19.2-.13.37-.33.5-.58.33-.53.5-1.23.48-1.94V5.62ZM84.2 17.6c0 .22-.02.43-.07.63s-.13.39-.23.54c-.1.15-.22.28-.35.36a.74.74 0 0 1-.42.12h-2.17a.58.58 0 0 1-.35-.1.93.93 0 0 1-.28-.33 2 2 0 0 1-.23-1.02V12.3c0-1.02.36-1.55 1.03-1.55h3.07v6.83ZM16.66 13c0-.43-.13-.63-.4-.63h-1.4c-.1 0-.2.04-.3.13a.8.8 0 0 0-.2.35l-.03.3v3.68c0 .53.2.78.57.78h1.3c.06 0 .12-.03.18-.07.06-.05.11-.1.15-.18a.5.5 0 0 0 .1-.19.7.7 0 0 0 .04-.24v-3.93Zm-4.23-.53c0-.78.17-1.53.5-2.13.16-.22.34-.4.53-.54.21-.15.44-.23.67-.24h2.6c1.13 0 1.74.92 1.74 2.76v5.58c0 .31-.05.63-.14.91-.1.29-.23.54-.4.73-.32.47-.75.75-1.2.78h-2.47v4.02h-1.83V12.46Zm9.34 4.65c0 .08 0 .15.03.22.02.07.06.13.1.17.1.1.22.15.33.15h1.4c.3 0 .47-.2.5-.54v-.77c0-.44-.16-.63-.5-.63h-1.4a.42.42 0 0 0-.36.14c-.08.17-.12.38-.1.58v.68Zm2.37-4.17c0-.38-.17-.58-.5-.58h-3.67V9.65h4.13c1.2.05 1.8.87 1.84 2.52v5.67c0 .66-.16 1.3-.47 1.8-.15.23-.34.42-.55.55-.2.13-.43.18-.65.17h-2.5c-1.2 0-1.84-.82-1.84-2.43v-2.17c0-1.7.6-2.52 1.77-2.57h2.44v-.25Zm6.9 8.73c.14-.01.27-.1.37-.24a.63.63 0 0 0 .1-.2.84.84 0 0 0 .03-.24v-.63H29.2c-.24 0-.5-.04-.73-.15a1.63 1.63 0 0 1-.57-.58 4.2 4.2 0 0 1-.4-.92c-.08-.34-.13-.7-.13-1.06V9.6h1.83v7.17c0 .58.17.88.5.88H31a.4.4 0 0 0 .22-.07.6.6 0 0 0 .19-.18c.09-.1.15-.26.16-.43V9.6h1.8v11.83a4.4 4.4 0 0 1-.46 2.13c-.15.27-.34.48-.55.62-.22.15-.45.21-.69.2H27.4v-2.71h3.64Zm3.74-4.02H38c.3 0 .47-.2.47-.54v-.24c0-.08-.01-.17-.04-.24a.5.5 0 0 0-.1-.2.27.27 0 0 0-.16-.1h-1.6c-.46.01-.9-.25-1.24-.72a2.15 2.15 0 0 1-.38-.7c-.1-.26-.14-.55-.15-.85v-2.04c.03-1.6.6-2.37 1.77-2.42h3.77v2.71h-3.2c-.37 0-.57.15-.57.49v.24c0 .34.2.53.56.53h1.6c.21 0 .42.06.61.19.2.13.36.31.5.54.3.44.46 1.03.46 1.65v1.98a3.19 3.19 0 0 1-1.03 2.23c-.24.12-.49.17-.73.15h-3.77v-2.66Zm8.7-.54c0 .08 0 .15.03.22s.06.13.1.17c.1.1.22.15.34.15h1.4c.3 0 .47-.2.5-.54v-.77c0-.44-.17-.63-.5-.63h-1.4a.42.42 0 0 0-.37.14c-.08.17-.12.38-.1.58v.68Zm2.37-4.17c0-.38-.17-.58-.5-.58h-3.67V9.65h4.14c1.2.05 1.8.87 1.83 2.52v5.67c.01.66-.16 1.3-.47 1.8a1.7 1.7 0 0 1-.54.55c-.2.13-.43.19-.66.17h-2.5c-1.2 0-1.83-.82-1.83-2.43v-2.17c0-1.7.6-2.52 1.76-2.57h2.44v-.25Zm3.27-4.84c0-.34.04-.67.14-.98.1-.3.24-.56.43-.77.4-.46.89-.7 1.4-.68h1.16V8.3h-.7a.37.37 0 0 0-.22.03.53.53 0 0 0-.2.16.82.82 0 0 0-.13.26c-.03.1-.05.21-.05.33v.58h1.3v2.71h-1.3v8.05h-1.83V8.1Zm8.27 4.8v-.05a.5.5 0 0 0-.03-.2.32.32 0 0 0-.1-.14.44.44 0 0 0-.3-.15h-1.27c-.07 0-.14 0-.21.04a.54.54 0 0 0-.19.16.54.54 0 0 0-.14.2.82.82 0 0 0-.06.28v1.11l2.3-1.26Zm-2.23 3.82v.15c-.01.1 0 .2.02.29.02.09.06.17.11.24.07.15.13.25.23.25h3.74v2.7h-3.97a1.9 1.9 0 0 1-.83-.14c-.23-.1-.43-.29-.6-.53a2.54 2.54 0 0 1-.4-.87c-.08-.41-.12-.84-.1-1.26v-5.43c.03-1.65.6-2.47 1.76-2.52h2.47c1.14.05 1.7.87 1.74 2.62v2.13l-4.17 2.37Z"/></svg>
